!!! OTL: Berkowitz407
!!! Chapter: 1
!!! Section: III
!!! Page: 101
!!! Mode: 
!!! Encoder: DJB
**kern
*staff1
*I"Piano
=1-
*clefF4
*k[f#c#g#]
*f#:
*M4/4
8F#\L
16A\L
16G#\JJ
8F#\L
8A\J
8c#\
4B\
[8A\
=2
8A\]
4G#\
8F#\
8E#\L
8F#\
8G#\J
8r
=3
8A\L
16c#\L
16B\JJ
8A\L
8c#\J
8e\
4d\
[8c#\
=4
8c#\]
4B\
8A\
4G#\
4E\
=5
4c#\
4e\
8E\
4d\
8c#\
=6
!!linebreak:original
8c#\L
8B\
8A\J
8r
8G#\L
8A\
8B\J
8r
=7
8A\L
8G#\
8F#\J
8r
8E#\L
8F#\
8G#\J
8r
=8
8F#\L
16A\L
16G#\JJ
8F#\L
8A\J
8d\L
8c#\
8B\
8A\J
=9
8r
4G#\
8F#\
8A\L
8G#\J
4F#\
==
*-
